X: 43
T: Drowsie Maggie 
M: 4/4
L: 1/8
R: Reel
K: Edor
E2BE dEBE|E2BE AFDF|E2BE dEBE|BABc dAFD|
E2BE dEBE|E2BE AFDF|E2BE dEBE|BABc dAFA||                             
d2fd cdec|defd faaf|d2fd cdec|BABc dAFA|
d2fd cdec|defd faa2|bgaf gfed|BABc dAFD||
